!!!!SEGMENT: Lpi1001c-Missa_Philomena-Credo.krn
!!!id: Lpi1001c
!!!AGN: Mass; Credo
!!!SCT: Blackburn (1989)
!!!voices: 4
!!!COM: Johannes Lupi
!!!OTL: Credo
**kern	**kern	**kern	**kern
*part4	*part3	*part2	*part1
*staff4	*staff3	*staff2	*staff1
*I"Bassus	*I"Tenor	*I"Altus	*I"Superius
*I'B	*I'T	*I'A	*I'S
*clefF4	*clefF4	*clefGv2	*clefG2
*k[b-]	*k[b-]	*k[b-]	*k[b-]
*F:	*F:	*F:	*F:
*M2/1	*M2/1	*M2/1	*M2/1
*met(C|)	*met(C|)	*met(C|)	*met(C|)
!!section: Patrem omnipotentem
!!!OMD: Patrem omnipotentem
=1	=1	=1	=1
1C	1r	0r	0r
2C	1G	.	.
2C	.	.	.
=2	=2	=2	=2
2BB-y	2G	0r	0r
2GG	2G	.	.
2.BB-y	2F	.	.
.	2D	.	.
4C	.	.	.
=3	=3	=3	=3
2D	2.F	0r	0r
2D	.	.	.
.	4G	.	.
2.D	4A	.	.
.	4F	.	.
.	2B-y	.	.
4E	.	.	.
=4	=4	=4	=4
4F	2A	1c	0r
4D	.	.	.
1G	2G	.	.
.	1A	2c	.
2F#i	.	2c	.
=5	=5	=5	=5
1G	2G	2B-y	1r
.	2.B-y	2G	.
1GG	.	1B-y	1g
.	4A	.	.
.	4G	.	.
.	4F	.	.
=6	=6	=6	=6
0r	1E	1c	2g
.	.	.	2g
.	[1D	2d	2f
.	.	[2f	2d
=7	=7	=7	=7
1r	1D]	4f]	1f
.	.	4e	.
.	.	1d	.
2r	1r	.	2.e
2C	.	4c	.
.	.	4B-y	4d
=8	=8	=8	=8
2C	0r	1c	1e
2C	.	.	.
2BB-y	.	2d	[1d
2GG	.	[2B-y	.
=9	=9	=9	=9
1BB-y	2r	4B-]	1d]
.	.	4A	.
.	2G	4G	.
.	.	4F	.
1C	2G	1E	1r
.	2G	.	.
=10	=10	=10	=10
2D	2F	1D	0r
2.F	2D	.	.
.	1F	1r	.
4E	.	.	.
[2D	.	.	.
=11	=11	=11	=11
2D]	1E	0r	1r
2C#i	.	.	.
[1D	1D	.	2r
.	.	.	2d
=12	=12	=12	=12
1D]	0r	2r	2d
.	.	2d	2d
1r	.	2d	4G
.	.	.	4A
.	.	2d	4B-y
.	.	.	4c
=13	=13	=13	=13
0r	2r	4G	4d
.	.	4A	4c
.	2D	4B-y	4d
.	.	4G	4e
.	2D	2A	2f
.	2D	[2B-y	[2d
=14	=14	=14	=14
1r	4GG	2B-]	2d]
.	4AA	.	.
.	4BB-y	4A	4c
.	4C	4G	4B-y
2r	4D	1F	1A
.	4E	.	.
2D	4F	.	.
.	4G	.	.
=15	=15	=15	=15
2D	2A	0r	0r
2D	2.B-y	.	.
2GG	.	.	.
.	4A	.	.
[2C	4G	.	.
.	4F	.	.
=16	=16	=16	=16
4C]	4E	1.c	0r
4BB-y	4D	.	.
4AA	1G	.	.
4GG	.	.	.
1AA	.	.	.
.	2F#i	2c	.
=17	=17	=17	=17
0GG	0G	2B-y	1r
.	.	2G	.
.	.	1B-y	[1g
=18	=18	=18	=18
0r	0r	1c	2g]
.	.	.	2g
.	.	2d	2f
.	.	[2f	2d
=19	=19	=19	=19
0r	0r	4f]	1f
.	.	4e	.
.	.	1d	.
.	.	.	1e
.	.	2c	.
=20	=20	=20	=20
0r	2r	2d	1d
.	2G	1B-y	.
.	2G	.	2r
.	2G	4A	[2d
.	.	4G	.
=21	=21	=21	=21
1D	2.A	2.F	2d]
.	.	.	2d
.	4G	4G	.
2D	2F	[1A	2.f
2D	4D	.	.
.	4E	.	4e
=22	=22	=22	=22
2D	4F	2A]	2d
.	4G	.	.
1F	4A	2F	2c
.	4B-y	.	.
.	2c	2.A	1f
4E	2F	.	.
4D	.	4B-y	.
=23	=23	=23	=23
2C	2G	2c	2e
2BB-y	1B-y	2F	1d
1E-i	.	2.G	.
.	4A	.	2c
.	4G	4A	.
=24	=24	=24	=24
2D	1F	2B-y	2d
1D	.	2A	2.f
.	1r	2B-y	.
.	.	.	4e
2C	.	2c	[2e
=25	=25	=25	=25
2F	1r	2A	4e]
.	.	.	4d
4E	.	1B-y	1d
4D	.	.	.
1E	2r	.	.
.	2G	4A	2c#i
.	.	4G	.
=26	=26	=26	=26
1D	2A	1F	0d
.	2F	.	.
1r	2G	2r	.
.	[2B-y	2G	.
=27	=27	=27	=27
0r	2B-]	2G	2r
.	2B-y	2G	2d
.	2G	2.B-y	2d
.	[2B-y	.	2d
.	.	4c	.
=28	=28	=28	=28
2r	2B-]	4d	2.f
.	.	4e	.
2D	4A	2.f	.
.	4G	.	4g
2D	1F	.	2a
.	.	4e	.
2D	.	4d	[2b-y
.	.	4c	.
=29	=29	=29	=29
2.GG	2r	2B-y	4b-]
.	.	.	4a
.	1B-y	2d	2g
4AA	.	.	.
2BB-y	.	2d	2f
2GG	4A	[2d	2b-y
.	4G	.	.
=30	=30	=30	=30
2D	2F	2d]	2a
2E	2G	2c	1g
1D	1A	1d	.
.	.	.	2f#i
=31	=31	=31	=31
0GG	1G	[0B-y	0g
.	1r	.	.
=32	=32	=32	=32
1.BB-y	2r	1B-]	0r
.	2F	.	.
.	2B-y	1r	.
2BB-y	2B-y	.	.
=33	=33	=33	=33
2C	2.A	1r	2r
2.D	.	.	2f
.	4G	.	.
.	2F	2r	2f
4C	.	.	.
4BB-y	2B-y	2d	2f
4AA	.	.	.
=34	=34	=34	=34
2GG	4B-y	2d	1g
.	4A	.	.
2BB-y	1G	2d	.
1AA	.	1c	1a
.	2F#i	.	.
=35	=35	=35	=35
1GG	1G	2B-y	2.b-y
.	.	2.d	.
.	.	.	4g
1r	1r	.	2a
.	.	4c	.
.	.	4B-y	[2b-y
.	.	4A	.
=36	=36	=36	=36
0r	0r	1G	4b-]
.	.	.	4a
.	.	.	1g
.	.	1A	.
.	.	.	2f#i
=37	=37	=37	=37
0r	2r	1G	2.g
.	2G	.	.
.	.	.	8fL
.	.	.	8eJ
.	2.B-y	2r	1d
.	.	2G	.
.	8AL	.	.
.	8GJ	.	.
=38	=38	=38	=38
0r	2F	2A	2r
.	1G	1B-y	2d
.	.	.	2e
.	4F	4A	2f
.	4E	4G	.
=39	=39	=39	=39
0r	2D	2A	4f
.	.	.	4e
.	2.G	2B-y	4d
.	.	.	4c
.	.	1G	2B-y
.	4F	.	.
.	[2B-y	.	[2d
=40	=40	=40	=40
0r	2B-]	2r	2d]
.	4A	2c	4c
.	4G	.	4B-y
.	1F	2c	4A
.	.	.	4G
.	.	2c	2A
=41	=41	=41	=41
0r	2r	2B-y	4G
.	.	.	4A
.	2G	2G	4B-y
.	.	.	4c
.	2G	2B-y	4d
.	.	.	4c
.	2F	2c	4d
.	.	.	4e
=42	=42	=42	=42
0r	2D	1d	4f
.	.	.	4g
.	2F	.	2.a
.	2E	1G	.
.	.	.	4g
.	2E	.	2g
=43	=43	=43	=43
2r	2D	2.d	2f
2G	4GG	.	2.b-y
.	4AA	4c	.
2G	4BB-y	4d	.
.	4C	4e	4a
2F	4D	[2f	[2a
.	4E	.	.
=44	=44	=44	=44
2D	4F	4f]	2a]
.	4G	4e	.
2F	1A	1d	4g
.	.	.	4f
2E	.	.	1g
2E	2G	2c#i	.
=45	=45	=45	=45
0D	1A	[0d	0f
.	2r	.	.
.	2F	.	.
=46	=46	=46	=46
2r	1B-y	1d]	0r
1BB-y	.	.	.
.	1B-y	1r	.
2BB-y	.	.	.
=47	=47	=47	=47
2C	2.A	1r	2r
2.D	.	.	2f
.	4G	.	.
.	2F	2r	2f
4C	.	.	.
4BB-y	[2B-y	2d	2f
4AA	.	.	.
=48	=48	=48	=48
2GG	4B-]	1d	1g
.	4A	.	.
2BB-y	1G	.	.
1AA	.	1c	1a
.	2F#i	.	.
=49	=49	=49	=49
1GG	2G	2B-y	2.b-y
.	2G	2.d	.
.	.	.	4g
1r	2F	.	2a
.	.	4c	.
.	2G	4B-y	[2b-y
.	.	4A	.
=50	=50	=50	=50
0r	4G	2G	4b-]
.	4F	.	4a
.	4E	2B-y	1g
.	4D	.	.
.	2C	1A	.
.	2D	.	2f#i
=51	=51	=51	=51
0r	2GG	1G	1g
.	1G	.	.
.	.	2r	1a
.	2F#i	[2d	.
=52	=52	=52	=52
2r	1G	2d]	0g
1G	.	2d	.
.	1C	2.e	.
2G	.	.	.
.	.	4d	.
=53	=53	=53	=53
2.A	0r	2c	0r
.	.	2.f	.
4G	.	.	.
2F	.	.	.
.	.	4e	.
[2G	.	4d	.
.	.	4c	.
=54	=54	=54	=54
4G]	2r	4B-y	2r
4F	.	4c	.
4E	1G	1d	1g
4D	.	.	.
1E	.	.	.
.	2G	2c#i	2g
=55	=55	=55	=55
1D	2.A	1d	2.f
.	4G	.	8eL
.	.	.	8dJ
1r	2F	1r	2f
.	[2G	.	[2e
=56	=56	=56	=56
0r	4G]	2r	4e]
.	4F	.	4d
.	4E	1G	1d
.	4D	.	.
.	1E	.	.
.	.	2G	2c#i
=57	=57	=57	=57
0r	2D	2A	0d
.	4GG	1B-y	.
.	4AA	.	.
.	4BB-y	.	.
.	4C	.	.
.	4D	4A	.
.	4E	4G	.
=58	=58	=58	=58
2r	2F	2A	0r
2G	2G	1d	.
2G	1E	.	.
2G	.	2c#i	.
=59	=59	=59	=59
2F	2D	0d	2r
2G	2G	.	2B-y
1D	2G	.	2B-y
.	2F	.	2A
=60	=60	=60	=60
2r	2G	2r	2B-y
2G	2G	2B-y	2G
2G	1D	2B-y	[1d
2F	.	2A	.
=61	=61	=61	=61
2G	2r	2B-y	2d]
2G	2G	2G	2.e
2.D	2G	2A	.
.	.	.	4d
.	2F	[2B-y	[2d
4F	.	.	.
=62	=62	=62	=62
1E	2G	2B-]	2d]
.	2G	4A	2c#i
.	.	4G	.
1D	2A	[1F	[1d
.	[2D	.	.
=63	=63	=63	=63
2r	4D]	1F]	0d]
.	4E	.	.
2D	4F	.	.
.	4G	.	.
2D	2A	2r	.
2D	[2B-y	2f	.
=64	=64	=64	=64
2BB-y	4B-]	2f	1r
.	4A	.	.
2C	2G	2e	.
2.D	1F	2.d	2r
.	.	.	2d
4E	.	8cL	.
.	.	8B-yJ	.
=65	=65	=65	=65
2F	1r	2A	2d
2.G	.	2B-y	2d
.	2r	2G	2B-y
4F	.	.	.
2E	2G	[2c	2c
=66	=66	=66	=66
1D	2F	2c]	1d
.	2B-y	2B-y	.
1C	2A	1c	1e-i
.	[2G	.	.
=67	=67	=67	=67
0r	2G]	2r	4d
.	.	.	4e
.	4F	1d	4f
.	4E	.	4g
.	2F	.	2a
.	[2G	2d	[2b-y
=68	=68	=68	=68
0r	4G]	2B-y	4b-]
.	4F	.	4a
.	4E	2c	4g
.	4D	.	4f
.	1C	2e-i	1g
.	.	2e-i	.
=69	=69	=69	=69
2r	1D	2.d	[0f
2D	.	.	.
.	.	8cL	.
.	.	8B-yJ	.
2.F	1r	2A	.
.	.	2D	.
4E	.	.	.
=70	=70	=70	=70
4D	0r	2.F	0f]
4C	.	.	.
2.D	.	.	.
.	.	4G	.
.	.	2A	.
4C	.	.	.
4BB-y	.	[2B-y	.
4AA	.	.	.
=71	=71	=71	=71
4GG	1D	2B-]	0r
4FF	.	.	.
2.F	.	4A	.
.	.	4G	.
.	2.F	2.A	.
4E	.	.	.
2D	.	.	.
.	4G	4B-y	.
=72	=72	=72	=72
2C	2A	2c	0r
2BB-y	2B-y	1d	.
1E-i	2B-y	.	.
.	4A	2c	.
.	4G	.	.
=73	=73	=73	=73
0D	2B-y	1d	1r
.	2.A	.	.
.	.	2r	1d
.	4G	.	.
.	4F	[2f	.
.	4E	.	.
=74	=74	=74	=74
0r	2.D	4f]	2.f
.	.	4e	.
.	.	2d	.
.	4E	.	4g
.	4F	2c	2a
.	4D	.	.
.	2G	2B-y	[2b-y
=75	=75	=75	=75
0r	2G	1e-i	2b-]
.	4F	.	4a
.	4E	.	4g
.	2G	2d	2b-y
.	2F	[2d	2a
=76	=76	=76	=76
1r	2.BB-y	2d]	2.f
.	.	4c	.
.	4C	4B-y	4e
1F	4D	4A	2d
.	4E	4G	.
.	4F	4A	2c
.	4G	4B-y	.
=77	=77	=77	=77
2F	2A	4c	1f
.	.	4A	.
2D	2F	2B-y	.
2C	2G	2c	2e
2BB-y	[2B-y	2F	[2d
=78	=78	=78	=78
1E-i	2B-]	2G	2d]
.	4A	1B-y	2c
.	4G	.	.
1D	1F	.	2d
.	.	2A	2d
=79	=79	=79	=79
2GG	2r	2.B-y	2d
2G	2B-y	.	4G
.	.	4c	4A
1G	4B-y	1d	4B-y
.	4A	.	4c
.	4B-y	.	4d
.	4G	.	4e
=80	=80	=80	=80
1F	2A	[0dl	4f
.	.	.	4g
.	2F	.	2.a
1G	[1B-y	.	.
.	.	.	4g
.	.	.	[2g
=81	=81	=81	=81
0D	2B-]	0d_	2g]
.	4A	.	4f#i
.	4G	.	4e
.	1A	.	1f#i
=	=	=	=
00GG	00G	00d]	00g
=||	=||	=||	=||
*M2/1	*M2/1	*M2/1	*M2/1
*met(C|)	*met(C|)	*met(C|)	*met(C|)
!!section: Et incarnatus est
!!!OMD: Et incarnatus est
0r	1D	0r	0r
.	2D	.	.
.	2D	.	.
=82	=82	=82	=82
0r	2.F	0r	0r
.	4G	.	.
.	1A	.	.
=83	=83	=83	=83
1GG	2r	0r	0r
.	2G	.	.
2GG	1B-y	.	.
2GG	.	.	.
=84	=84	=84	=84
2.BB-y	1B-y	0r	0r
4C	.	.	.
1D	1A	.	.
=85	=85	=85	=85
2r	2B-y	1G	0r
2C	1c	.	.
1E-X	.	2G	.
.	4B-y	2G	.
.	4A	.	.
=86	=86	=86	=86
1E-i	1G	2.B-y	1r
.	.	4c	.
1D	2r	1d	2r
.	2A	.	2d
=87	=87	=87	=87
1GG	2B-y	0r	2d
.	2G	.	2d
1D	1A	.	2.f
.	.	.	4g
=88	=88	=88	=88
0r	1D	2r	1a
.	.	2A	.
.	[1G	2.B-y	2r
.	.	.	2g
.	.	4c	.
=89	=89	=89	=89
0r	1G]	2d	2b-y
.	.	2e	2b-y
.	1r	2.f	2.a
.	.	4e	4g
=90	=90	=90	=90
0r	2r	4d	2f
.	.	4c	.
.	2G	2.e	2.g
.	2B-y	.	.
.	.	4d	4f
.	2B-y	2d	4e
.	.	.	4d
=91	=91	=91	=91
1r	2.A	2d	1e
.	.	2c#i	.
.	4G	.	.
2r	2F	2d	2r
2GG	[2G	[2B-y	2d
=92	=92	=92	=92
2BB-y	4G]	4B-]	2d
.	4F	4A	.
2BB-y	2D	4F	2d
.	.	4G	.
2.AA	2E	4A	2.c
.	.	4G	.
.	[2F	[2A	.
4GG	.	.	4B-y
=93	=93	=93	=93
2FF	4F]	4A]	1A
.	4E	4G	.
2.F	2.D	4F	.
.	.	4E	.
.	.	1D	2.A
4E	4C	.	.
[2D	2BB-y	.	.
.	.	.	4G
=94	=94	=94	=94
2D]	2AA	1E	4A
.	.	.	4B-y
2C	2.A	.	2c
[1D	.	1D	2B-y
.	4G	.	.
.	[2G	.	4A
.	.	.	4G
=95	=95	=95	=95
1D]	2G]	2r	1A
.	2F#i	1d	.
1r	1G	.	2G
.	.	2d	[2g
=96	=96	=96	=96
0r	2r	2c	2g]
.	2G	2B-y	2g
.	1B-y	1d	2.f
.	.	.	8eL
.	.	.	8dJ
=97	=97	=97	=97
2r	2A	2c	2f
2GG	2G	1B-y	2e
2BB-y	2.F	.	2d
2BB-y	.	4A	[2f
.	4G	4G	.
=98	=98	=98	=98
2.AA	4A	1.c	4f]
.	4B-y	.	4e
.	1A	.	2.e
4GG	.	.	.
2FF	.	.	.
.	.	.	4d
2GG	4G	2B-y	[2d
.	4F	.	.
=99	=99	=99	=99
1AA	1E	1A	2d]
.	.	.	2c#i
1BB-y	[1D	2r	1d
.	.	2F	.
=100	=100	=100	=100
0GG	1D]	1B-y	2r
.	.	.	2d
.	1r	2.G	2B-y
.	.	.	[2G
.	.	4A	.
=101	=101	=101	=101
0r	1G	4B-y	4G]
.	.	4c	4A
.	.	2d	4B-y
.	.	.	4c
.	2.B-y	2r	4d
.	.	.	4e
.	.	2d	4f
.	4A	.	4g
=102	=102	=102	=102
2r	2F	2d	2a
2G	4G	2B-y	2.b-y
.	4A	.	.
2G	4B-y	2G	.
.	4G	.	4a
2F	[2c	2A	[2a
=103	=103	=103	=103
1E	4c]	2B-y	4a]
.	4B-y	.	4g
.	4A	2c	1g
.	4G	.	.
1D	1A	1d	.
.	.	.	2f#i
=104	=104	=104	=104
1GG	2G	1B-y	[0gl
.	2G	.	.
1GG	1B-y	2r	.
.	.	4G	.
.	.	4A	.
=105	=105	=105	=105
1GG	2G	4B-y	0g_
.	.	4c	.
.	4B-y	4d	.
.	4A	4B-y	.
2C	4G	2c	.
.	4F	.	.
[2C	[2G	[2e-i	.
=106	=106	=106	=106
2C]	4G]	4e-]	0g_
.	4F	4d	.
2BB-y	4E	1d	.
.	4D	.	.
1C	1E	.	.
.	.	2c	.
=107	=107	=107	=107
[0GGl	[0Dl	1d	0g_
.	.	[1dl	.
=	=	=	=
00GG]	00D]	00d]	00g]
=||	=||	=||	=||
*M2/1	*M2/1	*M2/1	*M2/1
*met(C|)	*met(C|)	*met(C|)	*met(C|)
!!section: Crucifixus
!!!OMD: Crucifixus
1D	0r	1r	0r
2D	.	2r	.
2D	.	2D	.
=108	=108	=108	=108
2.F	0r	2D	0r
.	.	2D	.
4E	.	.	.
4D	.	2.F	.
4C	.	.	.
[2D	.	.	.
.	.	4G	.
=109	=109	=109	=109
4D]	2r	2A	0r
4C	.	.	.
4BB-y	2D	1B-y	.
4AA	.	.	.
4GG	2D	.	.
4FF	.	.	.
[2F	2D	4A	.
.	.	4G	.
=110	=110	=110	=110
2F]	2.F	2.A	0r
2D	.	.	.
.	4G	4B-y	.
2C	2A	2c	.
2BB-y	[2B-y	[2d	.
=111	=111	=111	=111
1E-i	2B-]	2d]	1r
.	4A	2c	.
.	4G	.	.
[1D	2B-y	1d	2r
.	[2A	.	2d
=112	=112	=112	=112
1D]	4A]	2r	2d
.	4G	.	.
.	4F	1f	2d
.	4E	.	.
1r	2.D	.	2.f
.	.	2d	.
.	4E	.	4g
=113	=113	=113	=113
0r	4F	2c	2a
.	4D	.	.
.	1G	2B-y	1b-y
.	.	1e-i	.
.	4F	.	4a
.	4E	.	4g
=114	=114	=114	=114
0r	2G	1.d	2b-y
.	4F	.	2a
.	4E	.	.
.	2D	.	2.f
.	4BB-y	4c	.
.	4C	4B-y	4e
=115	=115	=115	=115
2r	4D	4A	2d
.	4E	4G	.
1F	4F	4A	2c
.	4G	4B-y	.
.	2A	4c	1f
.	.	4A	.
2D	2F	2B-y	.
=116	=116	=116	=116
2C	2G	2c	2e
2BB-y	1B-y	2F	1d
1E-i	.	1G	.
.	4A	.	2c
.	4G	.	.
=117	=117	=117	=117
1D	1F	2A	0d
.	.	1B-y	.
[1GG	2r	.	.
.	[2G	4A	.
.	.	4G	.
=118	=118	=118	=118
1GG]	2G]	1B-y	2r
.	2G	.	1d
1r	2F	2A	.
.	2D	[2A	2d
=119	=119	=119	=119
0r	2E	4A]	2B-y
.	.	4G	.
.	2E	1G	2G
.	[1D	.	2.B-y
.	.	4F	.
.	.	4E	4c
=120	=120	=120	=120
0r	1D]	1F	1A
.	2r	1G	1G
.	[2G	.	.
=121	=121	=121	=121
0r	2G]	2r	0d
.	2G	1G	.
.	1B-y	.	.
.	.	2G	.
=122	=122	=122	=122
0r	2G	2.B-y	1d
.	1B-y	.	.
.	.	4c	.
.	.	4d	2.f
.	.	4e	.
.	4A	[2f	.
.	4G	.	4g
=123	=123	=123	=123
2r	2F	4f]	2a
.	.	4e	.
1GG	2G	4d	1b-y
.	.	4c	.
.	2D	1d	.
2GG	[2B-y	.	4a
.	.	.	4g
=124	=124	=124	=124
2BB-y	2B-]	1d	2f
2GG	4A	.	2b-y
.	4G	.	.
2D	2F	2d	4a
.	.	.	4g
2E-i	2G	2c	[2g
=125	=125	=125	=125
1D	1A	1d	2g]
.	.	.	2f#i
2GG	1G	2B-y	[1g
[2C	.	2e-i	.
=126	=126	=126	=126
2C]	2r	2c	1g]
2BB-y	2B-y	1d	.
2C	2A	.	1r
2C	2G	2c	.
=127	=127	=127	=127
2GG	1B-y	1d	1r
2BB-y	.	.	.
2C	2A	2r	2r
[2D	2A	[2d	[2f
=128	=128	=128	=128
4D]	2F	2d]	2f]
4C	.	.	.
4BB-y	2.B-y	2d	2f
4AA	.	.	.
2GG	.	1d	1g
.	4A	.	.
2BB-y	[2G	.	.
=129	=129	=129	=129
1AA	2G]	1c	1a
.	2F#i	.	.
1GG	2G	2B-y	2b-y
.	2G	2d	2b-y
=130	=130	=130	=130
0r	2F	4d	2a
.	.	4c	.
.	2.G	4B-y	2.b-y
.	.	4A	.
.	.	2G	.
.	4F	.	4a
.	4E-X	2B-y	[2g
.	4D	.	.
=131	=131	=131	=131
0r	2C	1A	2g]
.	2D	.	2f#i
.	2GG	1G	1g
.	[2G	.	.
=132	=132	=132	=132
1r	2G]	2r	1a
.	2F#i	1d	.
2r	1G	.	[1g
[2G	.	2d	.
=133	=133	=133	=133
2G]	1C	1e	1g]
2G	.	.	.
1A	1r	2c	1r
.	.	[2f	.
=134	=134	=134	=134
2F	1r	4f]	1r
.	.	4e	.
2.G	.	4d	.
.	.	4c	.
.	2r	4B-y	2r
4F	.	4A	.
4E	2G	[2d	2g
4D	.	.	.
=135	=135	=135	=135
1E	2G	2d]	2g
.	2G	2c#i	2g
1D	2A	1d	2.f
.	2A	.	.
.	.	.	8eL
.	.	.	8dJ
=136	=136	=136	=136
0r	2F	0r	2f
.	2.G	.	2.e
.	4F	.	4d
.	4E	.	[2d
.	4D	.	.
=137	=137	=137	=137
0r	1E	1r	2d]
.	.	.	2c#i
.	1D	2r	1d
.	.	2A	.
=138	=138	=138	=138
0r	1GG	2.B-y	2r
.	.	.	2g
.	.	4c	.
.	1r	2d	2b-y
.	.	2e	2b-y
=139	=139	=139	=139
0r	0r	2.f	1a
.	.	4e	.
.	.	4d	2f
.	.	4c	.
.	.	[2e	[2g
=140	=140	=140	=140
1r	0r	4e]	4g]
.	.	4d	4f
.	.	1d	4e
.	.	.	4d
2r	.	.	1e
2C	.	2c#i	.
=141	=141	=141	=141
2BB-y	1r	0d	1d
2GG	.	.	.
2.BB-y	2r	.	1r
.	2G	.	.
4C	.	.	.
=142	=142	=142	=142
2D	2B-y	0r	0r
2E	2B-y	.	.
2.F	1A	.	.
4E	.	.	.
=143	=143	=143	=143
4D	2F	1r	0r
4C	.	.	.
2.E	2.G	.	.
.	.	2r	.
4D	4F	.	.
[2D	4E	[2A	.
.	4D	.	.
=144	=144	=144	=144
2D]	1E	4A]	0r
.	.	4B-y	.
2C	.	2c	.
1D	2F	2A	.
.	2D	2B-y	.
=145	=145	=145	=145
2r	2F	1A	2r
2F	2D	.	2a
2D	2.F	2r	2b-y
[2F	.	4D	[2a
.	4G	4E	.
=146	=146	=146	=146
4F]	2.A	4F	4a]
4E	.	4G	4g
2D	.	4A	2f
.	4G	4B-y	.
2C	2A	2c	2e
2BB-y	[2B-y	2F	[2d
=147	=147	=147	=147
1E-i	2B-]	4G	4d]
.	.	4A	4G
.	4A	4B-y	1g
.	4G	4c	.
1D	1A	1d	.
.	.	.	2f#i
=148	=148	=148	=148
2GG	0G	2B-y	1g
2C	.	2e-i	.
2BB-y	.	2d	2r
2C	.	2c	2g
=149	=149	=149	=149
1GG	2r	2.B-y	2g
.	2G	.	2g
.	.	4c	.
1r	2B-y	2d	2.f
.	2B-y	2d	.
.	.	.	8eL
.	.	.	8dJ
=150	=150	=150	=150
2r	2A	2c	2f
2GG	2G	1B-y	2e
2BB-y	2.F	.	2d
2BB-y	.	4A	[2f
.	4G	4G	.
=151	=151	=151	=151
1AA	4A	2.c	4f]
.	4B-y	.	4e
.	1A	.	2.e
.	.	4B-y	.
2FF	.	2c	.
.	.	.	4d
2GG	4G	2B-y	[2d
.	4F	.	.
=152	=152	=152	=152
1AA	1E	2A	2d]
.	.	2A	2c#i
1BB-y	1D	2F	1d
.	.	[2B-y	.
=153	=153	=153	=153
1GG	2r	2B-]	1r
.	2G	4A	.
.	.	4G	.
1r	2A	2F	2r
.	[2B-y	2f	[2d
=154	=154	=154	=154
0r	2B-]	2d	2d]
.	4A	2.f	2d
.	4G	.	.
.	2F	.	2d
.	.	4e	.
.	[2G	4d	2d
.	.	4c	.
=155	=155	=155	=155
0r	2G]	2B-y	2e
.	4F	4A	2f
.	4E	4G	.
.	2D	2A	4f
.	.	.	4e
.	[2G	2B-y	4d
.	.	.	4c
=156	=156	=156	=156
0r	4G]	1G	2B-y
.	4F	.	.
.	1B-y	.	1d
.	.	2r	.
.	4A	[2c	4c
.	4G	.	4B-y
=157	=157	=157	=157
1r	2F	2c]	4A
.	.	.	4G
.	4G	2c	2A
.	4F	.	.
2r	2G	2B-y	2.B-y
[2G	4GG	[2B-y	.
.	4AA	.	4c
=158	=158	=158	=158
2G]	4BB-y	2B-]	2d
.	4C	.	.
2F	4D	4A	2.f
.	4E	4G	.
2D	4F	2A	.
.	4G	.	4e
2F	[2A	2D	[2d
=159	=159	=159	=159
1E	4A]	2r	4d]
.	8GL	.	8c#iL
.	8FJ	.	8BniJ
.	2G	2G	2c#i
1D	4A	2F	[1d
.	4G	.	.
.	4F	2B-y	.
.	4E	.	.
=160	=160	=160	=160
2r	2F	2.A	0d]
2D	2B-y	.	.
.	.	4G	.
2D	2A	2F	.
2D	[2B-y	[2f	.
=161	=161	=161	=161
2BB-y	2B-]	2f]	1r
2C	4A	2e	.
.	4G	.	.
2.D	1F	2.d	2r
.	.	.	2d
4E	.	8cL	.
.	.	8B-yJ	.
=162	=162	=162	=162
4F	1r	2A	2d
4D	.	.	.
2.G	.	2B-y	2d
.	2r	2G	2B-y
4F	.	.	.
2E	2G	[2c	2c
=163	=163	=163	=163
1D	2F	2c]	1d
.	2B-y	2B-y	.
1C	2A	1c	1e-i
.	[2G	.	.
=164	=164	=164	=164
0r	2G]	2r	4d
.	.	.	4e
.	4F	2d	4f
.	4E	.	4g
.	2F	2d	2a
.	[2G	2d	[2b-y
=165	=165	=165	=165
0r	4G]	2B-y	4b-]
.	4F	.	4a
.	4E	2c	4g
.	4D	.	4f
.	1C	2e-i	1g
.	.	2e-i	.
=166	=166	=166	=166
1r	2D	2d	2f
.	2.B-y	2d	1f
2r	.	2d	.
.	4A	.	.
2C	[2A	2c	[2e-X
=167	=167	=167	=167
2E-i	4A]	2B-y	2e-]
.	4G	.	.
2E-i	1G	2G	2c
2.D	.	1A	[1d
.	2F#i	.	.
4C	.	.	.
=168	=168	=168	=168
2BB-y	4G	2r	2d]
.	4F	.	.
2C	4E	2G	2c
.	4D	.	.
2GG	1E	4G	2B-y
.	.	4A	.
[2G	.	4B-y	2G
.	.	4G	.
=169	=169	=169	=169
2G]	2.D	2A	1d
2F#i	.	1d	.
.	4C	.	.
[1G	2BB-y	.	2r
.	2C	2c	2g
=170	=170	=170	=170
1G]	1GG	2B-y	1b-y
.	.	4A	.
.	.	4G	.
2r	1r	1d	2.a
2D	.	.	.
.	.	.	4g
=171	=171	=171	=171
2D	2r	0r	2f
2C	2G	.	2e
2BB-y	1B-y	.	1d
2GG	.	.	.
=172	=172	=172	=172
2.BB-y	1B-y	1r	2r
.	.	.	2d
4C	.	.	.
1D	2.A	2r	2f
.	.	[2d	2g
.	4G	.	.
=173	=173	=173	=173
2r	2F	2d]	2.a
1D	2D	4c	.
.	.	4B-y	4g
.	2.F	2A	4a
.	.	.	4b-y
[2F	.	4D	[2a
.	4G	4E	.
=174	=174	=174	=174
4F]	2.A	4F	4a]
4E	.	4G	4g
2D	.	4A	2f
.	4G	4B-y	.
2C	2A	2c	2e
2BB-y	[2B-y	2F	[2d
=175	=175	=175	=175
1E-i	2B-]	4G	4d]
.	.	4A	4G
.	4A	4B-y	1g
.	4G	4c	.
1D	1A	1d	.
.	.	.	2f#i
=176	=176	=176	=176
1GG	1G	0B-y	1g
1BB-y	2r	.	1r
.	2F	.	.
=177	=177	=177	=177
2BB-y	2B-y	1r	1r
2BB-y	2B-y	.	.
2C	2.A	2r	2r
2D	.	[2d	[2f
.	4G	.	.
=178	=178	=178	=178
4D	2F	2d]	2f]
4C	.	.	.
4BB-y	2.B-y	2d	2f
4AA	.	.	.
2GG	.	1d	1g
.	4A	.	.
2BB-y	[2G	.	.
=179	=179	=179	=179
1AA	2G]	1c	1a
.	2F#i	.	.
1GG	1G	2B-y	2.b-y
.	.	[2d	.
.	.	.	4g
=180	=180	=180	=180
2r	0r	4d]	2a
.	.	4c	.
2D	.	4B-y	2.b-y
.	.	4A	.
2E-i	.	1G	.
.	.	.	4a
2E-i	.	.	[2g
=181	=181	=181	=181
1D	2r	1A	2g]
.	2A	.	2f#i
2BB-y	2B-y	1G	1g
2C	2G	.	.
=182	=182	=182	=182
2D	2G	2r	2r
2D	2F	2d	2a
4GG	2G	2d	2b-y
4AA	.	.	.
4BB-y	2G	2d	2b-y
4C	.	.	.
=183	=183	=183	=183
1D	2F	4f	1a
.	.	4e	.
.	1B-y	4d	.
.	.	4c	.
1r	.	2d	2f
.	4A	2B-y	2g
.	4G	.	.
=184	=184	=184	=184
0r	1F	2c	2a
.	.	2c	2a
.	2r	1B-y	1d
.	2G	.	.
=185	=185	=185	=185
0r	2G	1B-y	2r
.	2G	.	2d
.	2B-y	2B-y	2d
.	2B-y	2d	2d
=186	=186	=186	=186
2r	2A	2c	2f
2GG	2G	1B-y	2e
2BB-y	2.F	.	2d
2BB-y	.	4A	[2f
.	4G	4G	.
=187	=187	=187	=187
2.AA	4A	2c	4f]
.	4B-y	.	4e
.	1A	2c	2.e
4GG	.	.	.
2FF	.	2c	.
.	.	.	4d
2GG	4G	2B-y	[2d
.	4F	.	.
=188	=188	=188	=188
1AA	1E	1A	2d]
.	.	.	2c#i
1BB-y	2D	2r	[1d
.	2D	2F	.
=189	=189	=189	=189
1GG	2D	2G	0d_
.	2.G	1B-y	.
2r	.	.	.
.	4F	.	.
2D	2B-y	4A	.
.	.	4G	.
=190	=190	=190	=190
2D	2A	2F	1d]
2D	1B-y	2.f	.
2BB-y	.	.	1r
.	.	4e	.
2C	4A	2e	.
.	4G	.	.
=191	=191	=191	=191
2.D	1F	2.d	2r
.	.	.	2d
4E	.	8cL	.
.	.	8B-yJ	.
2F	1r	2A	2d
[2G	.	2B-y	2d
=192	=192	=192	=192
4G]	2r	2G	2B-y
4F	.	.	.
2E	2G	1c	2c
1D	2F	.	1d
.	2B-y	2B-y	.
=193	=193	=193	=193
1C	2A	1c	1e
.	1G	.	.
1r	.	2r	4d
.	.	.	4e
.	4F	[2d	4f
.	4E	.	4g
=194	=194	=194	=194
0r	2F	2d]	2a
.	2.G	2d	2.b-y
.	.	2B-y	.
.	4F	.	4a
.	4E	2c	4g
.	4D	.	4f
=195	=195	=195	=195
0r	1C	1e-i	1g
.	2D	2d	2f
.	[2B-y	2d	2d
=196	=196	=196	=196
2r	4B-]	2d	2f
.	4A	.	.
2C	2.A	2c	2e-X
2E	.	2B-y	2e-i
.	4G	.	.
2E	[2G	4A	2c
.	.	4G	.
=197	=197	=197	=197
2.D	2G]	1A	1.d
.	2F	.	.
4C	.	.	.
2BB-y	4G	2r	.
.	4F	.	.
2C	4E	[2G	2c
.	4D	.	.
=198	=198	=198	=198
2GG	1E	4G]	2B-y
.	.	4A	.
1G	.	4B-y	4A
.	.	4G	4G
.	2.D	2A	1d
2F#i	.	[2d	.
.	4C	.	.
=199	=199	=199	=199
0G	2BB-y	2d]	2r
.	2C	2c	2g
.	1GG	2.B-y	2b-y
.	.	.	2b-y
.	.	8AL	.
.	.	8GJ	.
=200	=200	=200	=200
1r	2r	1F	2.a
.	2D	.	.
.	.	.	4g
2r	2D	2r	2.f
2D	2D	[2F	.
.	.	.	4e
=201	=201	=201	=201
2D	2.F	4F]	1d
.	.	4G	.
2D	.	2A	.
.	4G	.	.
2.F	1A	4D	2r
.	.	4E	.
.	.	4F	2c
4E	.	4G	.
=202	=202	=202	=202
2D	2r	2A	2d
2D	2F	1B-y	2d
2E-i	2G	.	2B-y
2E-i	2G	4A	2c
.	.	4G	.
=203	=203	=203	=203
2.D	1F	2B-y	2d
.	.	2.A	2.f
4C	.	.	.
2BB-y	2.G	.	.
.	.	4G	4e
2C	.	[2G	[2e
.	4A	.	.
=204	=204	=204	=204
4D	2B-y	2G]	4e]
4E	.	.	4d
4F	2.A	2F	1d
4D	.	.	.
1E	.	1G	.
.	4G	.	.
.	2G	.	2c#i
=205	=205	=205	=205
2D	2F	2A	0d
1G	2G	2B-y	.
.	1D	2A	.
2F#i	.	2A	.
=206	=206	=206	=206
1G	2r	2.B-y	2r
.	2G	.	2B-y
.	.	4c	.
1D	2G	1d	2B-y
.	2F	.	2A
=207	=207	=207	=207
2r	1G	2r	2B-y
2G	.	1B-y	2.d
2G	1E	.	.
.	.	.	8cL
.	.	.	8B-yJ
2G	.	2G	2c
=208	=208	=208	=208
2F	2D	2A	1d
2G	1G	2B-y	.
1D	.	1A	2r
.	2F#i	.	[2d
=209	=209	=209	=209
2r	2G	2G	4d]
.	.	.	4e
1D	2A	4F	2.f
.	.	4G	.
.	4F	4A	.
.	4G	4B-y	4d
2C	4A	2c	2e
.	4F	.	.
=210	=210	=210	=210
2BB-y	1B-y	2F	4d
.	.	.	4e
4AA	.	2.f	4f
4GG	.	.	4g
2FF	2A	.	4a
.	.	4e	4g
2GG	2G	[2d	[2b-y
=211	=211	=211	=211
2D	2F	2d]	4b-]
.	.	.	4a
2E	2G	2c	1g
1D	1A	1d	.
.	.	.	2f#i
=212	=212	=212	=212
00GGl	00Gl	00dl	00gl
==	==	==	==
*-	*-	*-	*-
!!!system-decoration: [*]
!!!RDF**kern: i = editorial accidental
!!!RDF**kern: l = terminal long
!!!ENC: Benjamin Ory
!!!END: 2022/3/29
!!!EED: Benjamin Ory
!!!EEV: 2022/03/29
!!!YEC: Copyright 2022 Benjamin Ory, All Rights Reserved
!!!ONB: Translated from MusicXML on 2022/03/29
